svgs/sharp-light/cart-flatbed-boxes.svg

<svg xmlns="http://www.w3.org/2000/svg" viewBox="0 0 640 512"><!--! Font Awesome Pro 6.6.0 by @fontawesome - https://fontawesome.com License - https://fontawesome.com/license (Commercial License) Copyright 2024 Fonticons, Inc. --><path d="M16 0L0 0 0 32l16 0 80 0 0 368 0 16 16 0 56.6 0c-5.4 9.4-8.6 20.3-8.6 32c0 35.3 28.7 64 64 64s64-28.7 64-64c0-11.7-3.1-22.6-8.6-32l177.1 0c-5.4 9.4-8.6 20.3-8.6 32c0 35.3 28.7 64 64 64s64-28.7 64-64c0-11.7-3.1-22.6-8.6-32l56.6 0 16 0 0-32-16 0-112 0-288 0-96 0 0-368 0-16L112 0 16 0zM544 448a32 32 0 1 1 -64 0 32 32 0 1 1 64 0zM224 480a32 32 0 1 1 0-64 32 32 0 1 1 0 64zm0-416l128 0 0 224-128 0 0-224zM192 32l0 32 0 224 0 32 32 0 128 0 32 0 0-32 0-224 0-32-32 0L224 32l-32 0zM448 64l64 0 0 64-64 0 0-64zM416 32l0 32 0 64 0 32 32 0 64 0 32 0 0-32 0-64 0-32-32 0-64 0-32 0zm32 192l128 0 0 64-128 0 0-64zm0-32l-32 0 0 32 0 64 0 32 32 0 128 0 32 0 0-32 0-64 0-32-32 0-128 0z"/></svg>

<svg xmlns="http://www.w3.org/2000/svg" viewBox="0 0 640 512"><!--! Font Awesome Pro 6.4.2 by @fontawesome - https://fontawesome.com License - https://fontawesome.com/license (Commercial License) Copyright 2023 Fonticons, Inc. --><path d="M16 0H0V32H16 96V400v16h16 56.6c-5.4 9.4-8.6 20.3-8.6 32c0 35.3 28.7 64 64 64s64-28.7 64-64c0-11.7-3.1-22.6-8.6-32H456.6c-5.4 9.4-8.6 20.3-8.6 32c0 35.3 28.7 64 64 64s64-28.7 64-64c0-11.7-3.1-22.6-8.6-32H624h16V384H624 512 224 128V16 0H112 16zM544 448a32 32 0 1 1 -64 0 32 32 0 1 1 64 0zM224 480a32 32 0 1 1 0-64 32 32 0 1 1 0 64zm0-416H352V288H224V64zM192 32V64 288v32h32H352h32V288 64 32H352 224 192zM448 64h64v64H448V64zM416 32V64v64 32h32 64 32V128 64 32H512 448 416zm32 192H576v64H448V224zm0-32H416v32 64 32h32H576h32V288 224 192H576 448z"/></svg>
